icons/src/svg/document_xls.svg

<svg width="32" height="32" viewBox="0 0 32 32" fill="none" xmlns="http://www.w3.org/2000/svg">
<path fill-rule="evenodd" clip-rule="evenodd" d="M10 4C10 2.89543 10.8954 2 12 2H19.5858C20.1162 2 20.6249 2.21071 21 2.58579L29.4142 11C29.7893 11.3751 30 11.8838 30 12.4142V28C30 29.1046 29.1046 30 28 30H25C24.4477 30 24 29.5523 24 29C24 28.4477 24.4477 28 25 28H28V13H21C19.8954 13 19 12.1046 19 11V4H12V18C12 18.5523 11.5523 19 11 19C10.4477 19 10 18.5523 10 18V4ZM21 5.41421V11H26.5858L21 5.41421Z" fill="#0D0F13"/>
<path d="M7.316 30L5.528 26.784L3.74 30H2L4.52 25.56L2.108 21.48H3.884L5.552 24.384L7.196 21.48H8.972L6.548 25.56L9.068 30H7.316Z" fill="#0D0F13"/>
<path d="M9.9515 21.48H11.6435V28.68H15.3515V30H9.9515V21.48Z" fill="#0D0F13"/>
<path d="M19.3881 30.18C18.2041 30.18 17.3241 29.92 16.7481 29.4C16.1721 28.872 15.8841 28.168 15.8841 27.288H17.6241C17.6401 27.768 17.8001 28.156 18.1041 28.452C18.4081 28.748 18.8521 28.896 19.4361 28.896C19.9161 28.896 20.2881 28.796 20.5521 28.596C20.8241 28.396 20.9601 28.116 20.9601 27.756V27.636C20.9601 27.348 20.8681 27.124 20.6841 26.964C20.5081 26.796 20.2241 26.656 19.8321 26.544L18.2601 26.1C17.4681 25.868 16.9001 25.58 16.5561 25.236C16.2121 24.892 16.0401 24.404 16.0401 23.772C16.0401 23.284 16.1641 22.856 16.4121 22.488C16.6601 22.112 17.0161 21.82 17.4801 21.612C17.9521 21.404 18.5081 21.3 19.1481 21.3C19.9001 21.3 20.5201 21.416 21.0081 21.648C21.5041 21.872 21.8681 22.18 22.1001 22.572C22.3401 22.956 22.4641 23.384 22.4721 23.856H20.7321C20.7001 23.488 20.5441 23.184 20.2641 22.944C19.9921 22.704 19.6001 22.584 19.0881 22.584C18.6721 22.584 18.3441 22.684 18.1041 22.884C17.8641 23.076 17.7441 23.316 17.7441 23.604V23.724C17.7441 23.98 17.8321 24.184 18.0081 24.336C18.1841 24.488 18.4561 24.616 18.8241 24.72L20.3121 25.14C21.1441 25.38 21.7441 25.68 22.1121 26.04C22.4801 26.4 22.6641 26.92 22.6641 27.6C22.6641 28.4 22.3761 29.032 21.8001 29.496C21.2321 29.952 20.4281 30.18 19.3881 30.18Z" fill="#0D0F13"/>
</svg>

<svg id="Layer_1" xmlns="http://www.w3.org/2000/svg" viewBox="0 0 32 32">
    <path fill="currentColor" fill-rule="evenodd" d="m10,4c0-1.1.9-2,2-2h7.59c.53,0,1.04.21,1.41.59l8.41,8.41c.38.38.59.88.59,1.41v15.59c0,1.1-.9,2-2,2h-3c-.55,0-1-.45-1-1s.45-1,1-1h3v-15h-7c-1.1,0-2-.9-2-2v-7h-7v14c0,.55-.45,1-1,1s-1-.45-1-1V4Zm11,1.41v5.59h5.59l-5.59-5.59ZM7.32,30l-1.79-3.22-1.79,3.22h-1.74l2.52-4.44-2.41-4.08h1.78l1.67,2.9,1.64-2.9h1.78l-2.42,4.08,2.52,4.44h-1.75Zm2.64-8.52h1.69v7.2h3.71v1.32h-5.4v-8.52Zm9.44,8.7c-1.18,0-2.06-.26-2.64-.78-.58-.53-.86-1.23-.86-2.11h1.74c.02.48.18.87.48,1.16.3.3.75.44,1.33.44.48,0,.85-.1,1.12-.3.27-.2.41-.48.41-.84v-.12c0-.29-.09-.51-.28-.67-.18-.17-.46-.31-.85-.42l-1.57-.44c-.79-.23-1.36-.52-1.7-.86-.34-.34-.52-.83-.52-1.46,0-.49.12-.92.37-1.28.25-.38.6-.67,1.07-.88.47-.21,1.03-.31,1.67-.31.75,0,1.37.12,1.86.35.5.22.86.53,1.09.92.24.38.36.81.37,1.28h-1.74c-.03-.37-.19-.67-.47-.91-.27-.24-.66-.36-1.18-.36-.42,0-.74.1-.98.3-.24.19-.36.43-.36.72v.12c0,.26.09.46.26.61.18.15.45.28.82.38l1.49.42c.83.24,1.43.54,1.8.9.37.36.55.88.55,1.56,0,.8-.29,1.43-.86,1.9-.57.46-1.37.68-2.41.68Z"/>
</svg>
